X: 100328
M: C|
L: 1/8
K: G
(udc) |\
(cB)AG (DG)BG | (DG)BG (DG)Bd | (cB)AG (DG) Bd | c2A2 A2(dc) |
(gf)gd (Bc)dB | (gf)gd (Bc)dB | cedB GBdB | c2A2 A2(dc) |


